dist/assets/img/logo.svg

<svg width="129" height="29" viewBox="0 0 129 29" fill="none" xmlns="http://www.w3.org/2000/svg">
<path d="M108.029 3.41489L105.216 14.5781L105.287 14.6106C105.554 14.2552 105.795 13.8923 106.084 13.5494C107.367 11.9725 108.91 10.7711 110.98 10.3931C114.136 9.81496 117.549 11.0189 118.404 15.1863C119.331 19.6916 117.026 25.1005 113.108 27.5935C111.173 28.8249 109.065 29.298 106.803 28.7499C104.812 28.2693 103.69 26.8977 103.207 24.9954C103.032 24.3071 102.981 23.5863 102.87 22.8654C102.819 22.923 102.745 22.9905 102.684 23.0706C101.415 24.7752 100.133 26.4672 98.896 28.1917C98.604 28.5972 98.2993 28.7799 97.8143 28.7073C97.6949 28.6898 97.5604 28.7073 97.4004 28.6873C97.6111 27.8388 97.8143 27.0178 98.0199 26.1843C99.882 18.7505 101.744 11.3159 103.606 3.88044C103.695 3.52252 103.814 3.37985 104.226 3.37985C105.472 3.43742 106.722 3.41489 108.029 3.41489ZM114.187 16.4303C114.146 15.9823 114.128 15.5492 114.062 15.1212C113.661 12.4956 111.31 11.2291 108.844 12.3104C107.755 12.786 106.945 13.5894 106.257 14.5205C105.004 16.2779 104.177 18.2954 103.84 20.4175C103.601 21.7441 103.489 23.0807 103.84 24.4072C104.502 26.9102 106.864 27.9114 109.147 26.5923C109.705 26.2728 110.211 25.871 110.647 25.4009C112.968 22.8604 113.948 19.7843 114.187 16.4403V16.4303Z" fill="white"/>
<path d="M53.9453 28.6099L55.2428 23.5014L59.2572 7.75277C59.6 6.41619 59.9352 5.0746 60.2881 3.74803C60.3212 3.62538 60.4659 3.44017 60.5624 3.43766C61.9081 3.41764 63.2564 3.42264 64.658 3.42264C63.7008 7.17709 62.7537 10.8815 61.7812 14.686C62.2357 14.0803 62.5988 13.5421 63.0152 13.0465C65.0465 10.6111 68.1951 9.66503 71.1075 10.5861C73.055 11.2018 74.2459 12.6986 74.4516 14.7485C74.5912 16.1402 74.2738 17.4668 73.9285 18.7933C73.094 21.9771 72.2671 25.16 71.4478 28.3421C71.4274 28.4197 71.397 28.4948 71.364 28.5924H67.1337C67.2861 27.9817 67.4333 27.3885 67.5832 26.7953C68.3982 23.5915 69.2209 20.3927 70.0182 17.1864C70.2783 16.2391 70.2862 15.2417 70.0411 14.2905C69.8958 13.6836 69.5511 13.1411 69.0607 12.7473C68.5702 12.3535 67.9615 12.1305 67.3292 12.1129C65.4299 11.9728 64.0283 12.8413 62.8806 14.2304C61.6491 15.7322 61.0499 17.5093 60.5954 19.3515C59.8506 22.335 59.0888 25.3144 58.3101 28.2896C58.2797 28.4122 58.1324 28.5974 58.0359 28.5974C56.6952 28.6149 55.3495 28.6099 53.9453 28.6099Z" fill="white"/>
<path d="M91.8039 28.7098C91.395 26.8676 90.9913 25.063 90.5622 23.1357C90.4479 23.3585 90.3768 23.4886 90.3083 23.6213C89.2164 25.8038 87.7133 27.5935 85.3315 28.4695C83.4322 29.1678 81.4974 29.2204 79.6286 28.3644C77.7597 27.5084 77.0361 25.959 76.9396 24.0393C76.8736 22.7477 77.2316 21.5188 77.5464 20.2848C78.337 17.1895 79.1275 14.0925 79.918 10.9938C79.9663 10.7986 79.984 10.6084 80.2862 10.6134C81.5558 10.6284 82.8254 10.6134 84.0949 10.6134C84.166 10.6208 84.2365 10.6333 84.3057 10.6509C84.1381 11.3042 83.9756 11.9399 83.8106 12.5757C83.0107 15.6844 82.1906 18.788 81.4263 21.9042C81.263 22.6165 81.2006 23.3477 81.2409 24.0768C81.3222 26.0491 82.7898 27.2681 84.7958 27.1104C86.3751 26.9878 87.5533 26.1768 88.5156 25.0129C89.737 23.5412 90.3591 21.8041 90.8009 19.982C91.5423 16.9584 92.3244 13.9423 93.0861 10.9237C93.1344 10.7335 93.175 10.6034 93.4188 10.6059C94.6883 10.6059 95.9579 10.6059 97.2275 10.6059C97.2914 10.6141 97.3543 10.6284 97.4154 10.6484C97.2123 11.4744 97.0168 12.2854 96.8136 13.0963C95.5694 18.0906 94.3235 23.084 93.076 28.0765C92.8855 28.8274 93.0354 28.6722 92.2863 28.6923L91.8039 28.7098Z" fill="white"/>
<path d="M22.3247 4.47614C20.1986 4.47614 19.1363 5.01845 19.138 6.10306V24.9704C19.138 26.055 20.2003 26.5965 22.3247 26.5948V28.5972H10.4414V26.5948C12.5895 26.5948 13.6636 26.0533 13.6636 24.9704V6.10306C13.6636 5.02012 12.5895 4.47781 10.4414 4.47614V2.39368H22.3247V4.47614Z" fill="white"/>
<path d="M40.2715 2.3936C41.6761 2.3838 43.0789 2.49603 44.4636 2.72899C45.6163 2.91009 46.72 3.31873 47.7087 3.93041C48.6073 4.50894 49.3269 5.32041 49.7882 6.27569C50.2775 7.26519 50.5229 8.52335 50.5246 10.0502C50.5263 11.577 50.2808 12.8702 49.7882 13.9297C49.3311 14.9269 48.6124 15.7857 47.7061 16.4177C46.7287 17.0744 45.6238 17.5244 44.4611 17.7392C43.0792 18.0105 41.6728 18.1413 40.2638 18.1297H34.7412V24.9653C34.7412 26.0516 36.0658 26.5947 38.715 26.5947V28.5971H26.0801V26.5947C28.2028 26.5947 29.265 26.0532 29.2667 24.9703V6.10298C29.2667 5.02004 28.2045 4.47773 26.0801 4.47606V2.3936H40.2715ZM34.7412 5.3596V15.2363H39.6443C41.5774 15.2363 42.9613 14.7999 43.7958 13.9272C44.6304 13.0545 45.0476 11.768 45.0476 10.0677C45.0476 8.58091 44.6304 7.42371 43.7958 6.59607C42.9613 5.76842 41.5774 5.35627 39.6443 5.3596H34.7412Z" fill="white"/>
<path d="M122.816 5.48837C123.007 5.66462 123.227 5.80635 123.467 5.90718C123.874 6.06271 124.316 6.10795 124.747 6.0383C124.971 6.01181 125.191 5.95926 125.402 5.88174C124.919 7.58986 123.987 9.13891 122.702 10.3693C124.026 10.2856 125.298 9.82274 126.363 9.03654C127.827 7.93667 129.219 5.90522 128.971 3.70939C128.93 3.35124 128.698 1.62902 127.453 0.707236C126.647 0.108371 125.68 -0.110169 124.552 0.0516157C123.624 0.184697 122.908 0.556541 122.401 1.15932C121.894 1.7621 121.707 2.52927 121.841 3.45105C121.969 4.33174 122.294 5.01084 122.816 5.48837Z" fill="#DA4533"/>
<path d="M6.18398 5.48837C5.99317 5.66462 5.77289 5.80635 5.53308 5.90718C5.12551 6.06271 4.68379 6.10795 4.25293 6.0383C4.02925 6.01181 3.80947 5.95926 3.5981 5.88174C4.08125 7.58986 5.01323 9.13891 6.29803 10.3693C4.97396 10.2856 3.70243 9.82274 2.63651 9.03654C1.17347 7.93667 -0.218773 5.90522 0.0289993 3.70939C0.0702944 3.35124 0.302342 1.62902 1.5471 0.707236C2.35334 0.108371 3.32018 -0.110169 4.44761 0.0516157C5.37577 0.184697 6.09156 0.556541 6.5989 1.15932C7.10624 1.7621 7.29305 2.52927 7.15933 3.45105C7.03086 4.33174 6.70574 5.01084 6.18398 5.48837Z" fill="#DA4533"/>
</svg>

<svg width="129" height="29" fill="none" xmlns="http://www.w3.org/2000/svg"><path d="M108.029 3.415l-2.813 11.163.071.033c.267-.356.508-.719.797-1.062 1.283-1.576 2.826-2.778 4.896-3.156 3.156-.578 6.569.626 7.424 4.793.927 4.506-1.378 9.915-5.296 12.407-1.935 1.232-4.043 1.705-6.305 1.157-1.991-.48-3.113-1.852-3.596-3.755-.175-.688-.226-1.409-.337-2.13-.051.058-.125.126-.186.206-1.269 1.704-2.551 3.396-3.788 5.12-.292.406-.597.589-1.082.516-.12-.017-.254 0-.414-.02l.62-2.503 5.586-22.304c.089-.357.208-.5.62-.5 1.246.057 2.496.035 3.803.035zm6.158 13.015c-.041-.448-.059-.88-.125-1.309-.401-2.625-2.752-3.892-5.218-2.81-1.089.475-1.899 1.278-2.587 2.21a13.918 13.918 0 00-2.417 5.896c-.239 1.327-.351 2.664 0 3.99.662 2.503 3.024 3.504 5.307 2.185a6.348 6.348 0 001.5-1.191c2.321-2.54 3.301-5.617 3.54-8.96v-.01zM53.945 28.61l1.298-5.109 4.014-15.748c.343-1.337.678-2.678 1.031-4.005.033-.123.178-.308.274-.31 1.346-.02 2.694-.015 4.096-.015-.957 3.754-1.904 7.459-2.877 11.263.455-.606.818-1.144 1.234-1.64 2.031-2.435 5.18-3.381 8.093-2.46 1.947.616 3.138 2.113 3.344 4.162.14 1.392-.178 2.719-.523 4.045-.835 3.184-1.662 6.367-2.481 9.55-.02.077-.051.152-.084.25h-4.23c.152-.611.3-1.204.45-1.798.814-3.204 1.637-6.402 2.434-9.609a5.63 5.63 0 00.023-2.896 2.823 2.823 0 00-.98-1.543 2.895 2.895 0 00-1.732-.634c-1.9-.14-3.3.728-4.448 2.117-1.232 1.502-1.831 3.28-2.286 5.122a812.934 812.934 0 01-2.285 8.938c-.03.122-.178.307-.274.307-1.34.018-2.687.013-4.09.013zm37.859.1c-.409-1.842-.813-3.647-1.242-5.574-.114.223-.185.353-.254.485-1.092 2.183-2.595 3.973-4.977 4.849-1.899.698-3.834.75-5.702-.106-1.87-.856-2.593-2.405-2.69-4.325-.065-1.291.293-2.52.607-3.754l2.372-9.291c.048-.195.066-.386.368-.38 1.27.014 2.54 0 3.809 0 .071.007.142.02.21.037l-.494 1.925c-.8 3.108-1.62 6.212-2.385 9.328a7.796 7.796 0 00-.185 2.173c.081 1.972 1.549 3.191 3.555 3.033 1.58-.122 2.757-.933 3.72-2.097 1.221-1.472 1.843-3.209 2.285-5.031.741-3.024 1.523-6.04 2.285-9.058.048-.19.089-.32.333-.318h3.809c.063.008.126.022.187.042-.203.826-.398 1.637-.601 2.448-1.245 4.995-2.49 9.988-3.738 14.98-.19.751-.04.596-.79.616l-.482.018zM22.325 4.476c-2.126 0-3.189.542-3.187 1.627V24.97c0 1.085 1.062 1.627 3.187 1.625v2.002H10.44v-2.002c2.148 0 3.223-.542 3.223-1.625V6.103c0-1.083-1.075-1.625-3.223-1.627V2.394h11.884v2.082zm17.947-2.082a24.25 24.25 0 014.192.335 8.75 8.75 0 013.245 1.201 5.782 5.782 0 012.08 2.346c.489.99.734 2.247.736 3.774.001 1.527-.244 2.82-.737 3.88a6.17 6.17 0 01-2.082 2.488 8.63 8.63 0 01-3.245 1.321 20.896 20.896 0 01-4.197.39H34.74v6.836c0 1.087 1.325 1.63 3.974 1.63v2.002H26.08v-2.002c2.123 0 3.185-.542 3.187-1.625V6.103c0-1.083-1.063-1.625-3.187-1.627V2.394h14.192zm-5.53 2.966v9.876h4.902c1.933 0 3.317-.436 4.152-1.309.834-.872 1.252-2.159 1.252-3.86 0-1.486-.418-2.643-1.252-3.47-.835-.829-2.219-1.24-4.152-1.237h-4.903z" fill="#fff"/><path d="M122.816 5.488c.191.177.411.318.651.42.407.155.849.2 1.28.13.224-.026.444-.079.655-.156a9.97 9.97 0 01-2.7 4.487 6.898 6.898 0 003.661-1.332c1.464-1.1 2.856-3.132 2.608-5.328-.041-.358-.273-2.08-1.518-3.002-.806-.599-1.773-.817-2.901-.655-.928.133-1.644.505-2.151 1.107-.507.603-.694 1.37-.56 2.292.128.88.453 1.56.975 2.037zm-116.632 0c-.19.177-.411.318-.65.42-.408.155-.85.2-1.281.13a2.888 2.888 0 01-.655-.156 9.972 9.972 0 002.7 4.487 6.903 6.903 0 01-3.661-1.332C1.173 7.937-.22 5.905.029 3.709.07 3.351.302 1.63 1.547.707 2.353.108 3.32-.11 4.447.052c.93.133 1.646.505 2.153 1.107.507.603.694 1.37.56 2.292-.128.88-.453 1.56-.975 2.037z" fill="#DA4533"/></svg>
